X: 16887
T: Haugen's Reinlender
R: barndance
M: 4/4
K: Dmajor
F>G|A>B A>G F>A d>e|f2 f>e f>e d>c|e>d c>B A>F B>F|A2 A>G E2 E>F|
G>A G>F E2 E2|A>B A>G E2 E2|c2 c2 c>A B>A|1 F2 F>G F2:|2 d2 d2 d2 c>e||
f2 f2 f>e d>c|e>d c>B d2 F>G|A>F B>F A>F B>F|A2 A>G E2 E>F|e2 e2 e3 d|
d2 c2 c3 B|1 B>A A>A B>A B>A|F2 F>G F2 F>e:|2 B>A A>A B>A B>c|d2 d>c d2 d>c||
d2 B2 G3 B|d>G B>d e>d c>B|A2 F2 D3 F|A>D F>A B>d g>f|e2 c2 E3 A|
[1 c>A c>e g4|g>f f>e e>d d>c|c>B B>A B>A B>c:|2 c>A c>e (g2 g>)e|c2 c2 c>A B>c|d2 d2 d2||

